file/newsday.svg

<svg clip-rule="evenodd" fill-rule="evenodd" stroke-linejoin="round" stroke-miterlimit="1.41421" viewBox="0 0 560 400" xmlns="http://www.w3.org/2000/svg"><g fill-rule="nonzero" transform="matrix(1.12007 0 0 1.12007 277.109 2140.76)"><path d="m420.392 66.807h-19.505l6.177-11.639-20.074-38.157h19.585c.082.551 10.323 22.729 10.404 23.348.081-.619 10.159-22.658 10.24-23.348h19.18zm-168.31-11.158c-16.824 0-24.543-3.099-26.738-9.711-.488-1.446-.488-2.341-.569-3.582h18.205c.08.483.08 1.034.488 1.723.732 1.308 3.17 1.791 8.533 1.791 5.202 0 6.908-.759 6.908-2.273 0-1.447-1.787-1.792-7.233-2.549-1.95-.275-9.02-1.24-11.052-1.514-9.753-1.309-15.199-4.546-15.199-11.571 0-7.37 8.209-11.984 23.975-11.984 13.898 0 22.269 3.03 24.788 8.885.569 1.307.975 3.649.894 4.407h-17.636c-.081-.413-.324-1.24-.651-1.652-.731-.758-2.6-1.378-6.663-1.378-5.364 0-6.746.62-6.746 1.859 0 1.24.814 1.585 5.77 2.273 2.114.276 9.753 1.309 11.948 1.584 10.403 1.446 15.766 4.545 15.766 11.571 0 7.852-7.883 12.121-24.788 12.121zm-112.478-6.405c-4.388 4.133-11.865 6.269-22.837 6.269-11.054 0-19.343-2.413-23.975-7.715-2.764-3.03-4.308-6.956-4.308-12.052 0-4.546 1.463-8.61 4.632-11.778 4.795-5.028 12.761-7.92 23.814-7.92 13.49 0 21.861 4.82 25.519 11.983 1.625 3.375 2.275 7.438 1.869 11.709h-37.629c.082 1.102.488 2.342 1.544 3.443 1.464 1.585 4.632 2.411 8.534 2.411 3.251 0 5.608-.551 7.07-1.377 1.301-.688 2.032-1.516 2.196-2.205h17.96c-.488 2.342-2.032 5.028-4.389 7.232zm175.626-28.513v-20.731h18.449v49.037c0 2.268.566 5.769.569 5.786h-17.067l-1.382-4.89c-2.031 2.893-7.883 5.441-16.254 5.441-7.884 0-14.142-2.341-17.961-6.82-2.845-3.167-4.308-7.23-4.308-12.464 0-5.028 1.463-9.161 4.308-12.398 3.657-4.407 10.647-7.438 18.855-7.438 6.419 0 12.11 1.516 14.791 4.477zm41.041 9.711h-17.636c.081-1.791.813-4.409 2.113-6.267 4.225-6.062 12.515-8.128 24.381-8.128 14.466 0 22.351 4.132 24.056 10.813.57 2.135.895 6.268.732 9.643-.081 2.204-.081 6.405-.081 9.711 0 3.512.162 7.781.976 8.677h-17.636c-.326 0-.814-1.652-.814-3.237-3.332 2.342-9.59 3.72-18.448 3.72-9.915 0-17.23-2.893-17.637-9.504 0-.482-.081-1.929.082-2.962.407-6.199 7.802-11.089 24.137-11.571 3.496-.069 7.234.069 11.298.413-.082-.964-.163-1.653-.65-2.616-.814-1.585-3.089-2.549-6.665-2.549-3.007 0-5.121.344-6.421 1.309-1.056.826-1.706 1.721-1.787 2.548zm-289.81-1.377v-28.583h18.936v54.41h-20.237l-21.699-29.134v29.134h-18.936v-54.41h21.131zm110.852 25.826h-21.13l-15.442-37.88h18.936l7.965 24.105 7.234-24.105h20.237l7.395 24.105 7.559-24.105h18.123l-15.605 37.88h-20.887s-6.419-16.253-6.664-18.112c-.081-.69-.569-4.203-.569-4.203s-.569 3.444-.65 4.133c-.162 1.926-6.488 18.148-6.502 18.182zm187.003-16.047c-6.339 0-9.183 1.585-9.183 4.34 0 1.791 1.788 2.616 6.014 2.616 4.632 0 9.428-1.308 10.891-6.06-2.195-.551-3.577-.896-7.722-.896zm-66.641-8.608c-1.3 1.377-1.95 3.65-1.95 5.716 0 1.997.568 4.132 1.626 5.441 1.381 1.721 3.982 3.031 8.207 3.031 3.983 0 6.421-.966 7.965-2.549 1.383-1.446 2.195-3.72 2.195-5.923 0-2.342-.812-4.683-2.276-5.992-1.463-1.377-3.901-2.411-7.558-2.411-4.063 0-6.664 1.102-8.209 2.687zm-172.781-1.447c-1.381-1.515-4.226-2.617-8.127-2.617-3.738 0-6.665.964-8.289 2.548-.976.964-1.707 2.48-1.789 3.306h19.587c0-.895-.407-2.204-1.382-3.237z" fill="#08345b" transform="translate(-220.618 -1766.11)"/><path d="m-207.506-1710.92c-6.933-4.24-2.748-9.14 9.56-13.61l-4.348-1.24c-16.226 4.99-22.753 10.81-15.187 15.74 11.493 7.5 51.57 10.39 93.439 7.21-38.424 1.52-72.703-1.51-83.464-8.1" fill="#ed1834"/></g></svg>

<?xml version="1.0" encoding="UTF-8" standalone="no"?>
<!DOCTYPE svg PUBLIC "-//W3C//DTD SVG 1.1//EN" "http://www.w3.org/Graphics/SVG/1.1/DTD/svg11.dtd">
<svg width="100%" height="100%" viewBox="0 0 560 400" version="1.1" xmlns="http://www.w3.org/2000/svg" xmlns:xlink="http://www.w3.org/1999/xlink" xml:space="preserve" xmlns:serif="http://www.serif.com/" style="fill-rule:evenodd;clip-rule:evenodd;stroke-linejoin:round;stroke-miterlimit:1.41421;">
    <g transform="matrix(1.12007,0,0,1.12007,277.109,2140.76)">
        <g id="path44456" transform="matrix(1,0,0,1,-220.618,-1766.11)">
            <path d="M420.392,66.807L400.887,66.807L407.064,55.168L386.99,17.011L406.575,17.011C406.657,17.562 416.898,39.74 416.979,40.359C417.06,39.74 427.138,17.701 427.219,17.011L446.399,17.011L420.392,66.807ZM252.082,55.649C235.258,55.649 227.539,52.55 225.344,45.938C224.856,44.492 224.856,43.597 224.775,42.356L242.98,42.356C243.06,42.839 243.06,43.39 243.468,44.079C244.2,45.387 246.638,45.87 252.001,45.87C257.203,45.87 258.909,45.111 258.909,43.597C258.909,42.15 257.122,41.805 251.676,41.048C249.726,40.773 242.656,39.808 240.624,39.534C230.871,38.225 225.425,34.988 225.425,27.963C225.425,20.593 233.634,15.979 249.4,15.979C263.298,15.979 271.669,19.009 274.188,24.864C274.757,26.171 275.163,28.513 275.082,29.271L257.446,29.271C257.365,28.858 257.122,28.031 256.795,27.619C256.064,26.861 254.195,26.241 250.132,26.241C244.768,26.241 243.386,26.861 243.386,28.1C243.386,29.34 244.2,29.685 249.156,30.373C251.27,30.649 258.909,31.682 261.104,31.957C271.507,33.403 276.87,36.502 276.87,43.528C276.87,51.38 268.987,55.649 252.082,55.649ZM139.604,49.244C135.216,53.377 127.739,55.513 116.767,55.513C105.713,55.513 97.424,53.1 92.792,47.798C90.028,44.768 88.484,40.842 88.484,35.746C88.484,31.2 89.947,27.136 93.116,23.968C97.911,18.94 105.877,16.048 116.93,16.048C130.42,16.048 138.791,20.868 142.449,28.031C144.074,31.406 144.724,35.469 144.318,39.74L106.689,39.74C106.771,40.842 107.177,42.082 108.233,43.183C109.697,44.768 112.865,45.594 116.767,45.594C120.018,45.594 122.375,45.043 123.837,44.217C125.138,43.529 125.869,42.701 126.033,42.012L143.993,42.012C143.505,44.354 141.961,47.04 139.604,49.244ZM315.23,20.731L315.23,0L333.679,0L333.679,49.037C333.679,51.305 334.245,54.806 334.248,54.823L317.181,54.823L315.799,49.933C313.768,52.826 307.916,55.374 299.545,55.374C291.661,55.374 285.403,53.033 281.584,48.554C278.739,45.387 277.276,41.324 277.276,36.09C277.276,31.062 278.739,26.929 281.584,23.692C285.241,19.285 292.231,16.254 300.439,16.254C306.858,16.254 312.549,17.77 315.23,20.731ZM356.271,30.442L338.635,30.442C338.716,28.651 339.448,26.033 340.748,24.175C344.973,18.113 353.263,16.047 365.129,16.047C379.595,16.047 387.48,20.179 389.185,26.86C389.755,28.995 390.08,33.128 389.917,36.503C389.836,38.707 389.836,42.908 389.836,46.214C389.836,49.726 389.998,53.995 390.812,54.891L373.176,54.891C372.85,54.891 372.362,53.239 372.362,51.654C369.03,53.996 362.772,55.374 353.914,55.374C343.999,55.374 336.684,52.481 336.277,45.87C336.277,45.388 336.196,43.941 336.359,42.908C336.766,36.709 344.161,31.819 360.496,31.337C363.992,31.268 367.73,31.406 371.794,31.75C371.712,30.786 371.631,30.097 371.144,29.134C370.33,27.549 368.055,26.585 364.479,26.585C361.472,26.585 359.358,26.929 358.058,27.894C357.002,28.72 356.352,29.615 356.271,30.442ZM66.461,29.065L66.461,0.482L85.397,0.482L85.397,54.892L65.16,54.892L43.461,25.758L43.461,54.892L24.525,54.892L24.525,0.482L45.656,0.482L66.461,29.065ZM177.313,54.891L156.183,54.891L140.741,17.011L159.677,17.011L167.642,41.116L174.876,17.011L195.113,17.011L202.508,41.116L210.067,17.011L228.19,17.011L212.585,54.891L191.698,54.891C191.698,54.891 185.279,38.638 185.034,36.779C184.953,36.089 184.465,32.576 184.465,32.576C184.465,32.576 183.896,36.02 183.815,36.709C183.653,38.635 177.327,54.857 177.313,54.891ZM364.316,38.844C357.977,38.844 355.133,40.429 355.133,43.184C355.133,44.975 356.921,45.8 361.147,45.8C365.779,45.8 370.575,44.492 372.038,39.74C369.843,39.189 368.461,38.844 364.316,38.844ZM297.675,30.236C296.375,31.613 295.725,33.886 295.725,35.952C295.725,37.949 296.293,40.084 297.351,41.393C298.732,43.114 301.333,44.424 305.558,44.424C309.541,44.424 311.979,43.458 313.523,41.875C314.906,40.429 315.718,38.155 315.718,35.952C315.718,33.61 314.906,31.269 313.442,29.96C311.979,28.583 309.541,27.549 305.884,27.549C301.821,27.549 299.22,28.651 297.675,30.236ZM124.894,28.789C123.513,27.274 120.668,26.172 116.767,26.172C113.029,26.172 110.102,27.136 108.478,28.72C107.502,29.684 106.771,31.2 106.689,32.026L126.276,32.026C126.276,31.131 125.869,29.822 124.894,28.789Z" style="fill:rgb(8,52,91);fill-rule:nonzero;"/>
        </g>
        <path id="path44508" d="M-207.506,-1710.92C-214.439,-1715.16 -210.254,-1720.06 -197.946,-1724.53L-202.294,-1725.77C-218.52,-1720.78 -225.047,-1714.96 -217.481,-1710.03C-205.988,-1702.53 -165.911,-1699.64 -124.042,-1702.82C-162.466,-1701.3 -196.745,-1704.33 -207.506,-1710.92" style="fill:rgb(237,24,52);fill-rule:nonzero;"/>
    </g>
</svg>
